storage/app/icons/phosphoricons/light/line-segments-light.svg

<svg xmlns="http://www.w3.org/2000/svg" fill="currentColor" viewBox="0 0 256 256"><path d="M237.23 34.77a30.06 30.06 0 0 0-42.44 0 30.06 30.06 0 0 0 0 42.44c.65.64 1.32 1.24 2 1.81l-28.14 52.26a30.11 30.11 0 0 0-25.19 3.72L121 112.54a30 30 0 0 0-46.22-37.76 30 30 0 0 0 0 42.43 26 26 0 0 0 2 1.82l-28.14 52.26a30 30 0 0 0-29.87 7.5 30 30 0 1 0 42.44 0c-.65-.64-1.32-1.24-2-1.81l28.14-52.26a30.07 30.07 0 0 0 25.19-3.72L135 143.46a30 30 0 1 0 46.25-4.67 26 26 0 0 0-2-1.82l28.14-52.26a30 30 0 0 0 29.87-49.94Zm-184.51 178a18 18 0 1 1 0-25.46 18 18 0 0 1 0 25.43Zm30.55-104a18 18 0 1 1 25.46 0 18 18 0 0 1-25.46-.04Zm89.46 64a18 18 0 1 1 0-25.46 18 18 0 0 1 0 25.42Zm56-104a18 18 0 1 1 0-25.46 18 18 0 0 1 .01 25.41Z"/></svg>

<svg xmlns="http://www.w3.org/2000/svg" viewBox="0 0 256 256" fill="currentColor"><path d="M237.23,34.77a30.06,30.06,0,0,0-42.44,0h0a30.06,30.06,0,0,0,0,42.44c.65.64,1.32,1.24,2,1.81l-28.14,52.26A30.11,30.11,0,0,0,143.46,135L121,112.54A30,30,0,0,0,74.78,74.78h0a30,30,0,0,0,0,42.43,26.28,26.28,0,0,0,2,1.82L48.64,171.29a30,30,0,0,0-29.87,7.5h0a30,30,0,1,0,42.44,0c-.65-.64-1.32-1.24-2-1.81l28.14-52.26A30.07,30.07,0,0,0,112.54,121L135,143.46a30,30,0,1,0,46.25-4.67,26.28,26.28,0,0,0-2-1.82l28.14-52.26a30,30,0,0,0,29.87-49.94Zm-184.51,178a18,18,0,1,1,0-25.46A18,18,0,0,1,52.72,212.74Zm30.55-104a18,18,0,1,1,25.46,0A18,18,0,0,1,83.27,108.73Zm89.46,64a18,18,0,1,1,0-25.46A18,18,0,0,1,172.73,172.73Zm56-104a18,18,0,1,1,0-25.46A18,18,0,0,1,228.74,68.72Z"/></svg>
